dist/img/statistics/icon-2.svg

<svg width="19" height="15" viewBox="0 0 19 15" fill="none" xmlns="http://www.w3.org/2000/svg">
<path d="M15.6781 5.11713L18.9143 13.1609L15.8289 14.4026L12.5928 6.35887L15.6781 5.11713ZM16.584 10.4114C16.6637 10.3795 16.7017 10.29 16.6698 10.2104C16.6379 10.1307 16.5472 10.0927 16.4688 10.1245L15.4906 10.518C15.4109 10.5499 15.3729 10.6406 15.4048 10.7191C15.4293 10.7791 15.4869 10.8159 15.5482 10.8159C15.5678 10.8159 15.5874 10.8122 15.6058 10.8049L16.584 10.4114Z" fill="url(#paint0_linear_168_5599)"/>
<path d="M11.9707 4.81534L15.0569 3.57488L15.5635 4.83529L12.4773 6.07574L11.9707 4.81534Z" fill="url(#paint1_linear_168_5599)"/>
<path d="M11.04 2.50079L14.1262 1.26034L14.941 3.28745L11.8548 4.52791L11.04 2.50079Z" fill="url(#paint2_linear_168_5599)"/>
<path d="M10.683 2.41053V2.49143H7.35742V0.386719H10.683V2.41053Z" fill="url(#paint3_linear_168_5599)"/>
<path d="M10.683 2.80151V4.15971H7.35742V3.0859V2.80151H10.683Z" fill="url(#paint4_linear_168_5599)"/>
<path d="M9.01943 6.99255C9.32833 6.99255 9.58085 7.24384 9.58085 7.55397C9.58085 7.86287 9.32956 8.11539 9.01943 8.11539C8.7093 8.11539 8.45801 7.8641 8.45801 7.55397C8.45923 7.24384 8.71052 6.99255 9.01943 6.99255Z" fill="url(#paint5_linear_168_5599)"/>
<path d="M10.683 4.46985V14.4491H7.35742V4.46985H10.683ZM9.87278 10.4898C9.87278 10.404 9.80413 10.3353 9.71832 10.3353H8.32213C8.23633 10.3353 8.16768 10.404 8.16768 10.4898C8.16768 10.5756 8.23633 10.6442 8.32213 10.6442H9.7171C9.80291 10.6442 9.87278 10.5756 9.87278 10.4898ZM9.87278 12.0809C9.87278 11.9951 9.80413 11.9264 9.71832 11.9264H8.32213C8.23633 11.9264 8.16768 11.9963 8.16768 12.0809C8.16768 12.1667 8.23633 12.2353 8.32213 12.2353H9.7171C9.80291 12.2353 9.87278 12.1667 9.87278 12.0809ZM9.88994 7.55275C9.88994 7.07224 9.50013 6.68243 9.01962 6.68243C8.5391 6.68243 8.14929 7.07224 8.14929 7.55275C8.14929 8.03204 8.54032 8.42307 9.01962 8.42307C9.49891 8.42307 9.88994 8.03327 9.88994 7.55275Z" fill="url(#paint6_linear_168_5599)"/>
<path d="M4.8418 4.94424H5.92786V8.3336H4.8418V4.94424Z" fill="url(#paint7_linear_168_5599)"/>
<path d="M7.0473 4.31416V14.4479H3.72168V5.62332V3.95623V3.24036H7.0473V4.31416ZM6.23704 8.48803V4.78855C6.23704 4.70274 6.16839 4.6341 6.08259 4.6341H4.68639C4.60058 4.6341 4.53194 4.70274 4.53194 4.78855V8.48803C4.53194 8.57384 4.60058 8.64249 4.68639 8.64249H6.08136C6.16839 8.64249 6.23704 8.57384 6.23704 8.48803ZM6.23704 10.7509C6.23704 10.6651 6.16839 10.5964 6.08259 10.5964H4.68639C4.60058 10.5964 4.53194 10.6651 4.53194 10.7509C4.53194 10.8367 4.60058 10.9053 4.68639 10.9053H6.08136C6.16839 10.9053 6.23704 10.8355 6.23704 10.7509ZM6.23704 12.3407C6.23704 12.2549 6.16839 12.1863 6.08259 12.1863H4.68639C4.60058 12.1863 4.53194 12.2562 4.53194 12.3407C4.53194 12.4266 4.60058 12.4952 4.68639 12.4952H6.08136C6.16839 12.4964 6.23704 12.4266 6.23704 12.3407Z" fill="url(#paint8_linear_168_5599)"/>
<path d="M3.41155 3.08595V3.8006H0.0859375V1.61621H3.41155V3.08595Z" fill="url(#paint9_linear_168_5599)"/>
<path d="M0.0859375 4.11072H3.41155V5.46892H0.0859375V4.11072Z" fill="url(#paint10_linear_168_5599)"/>
<path d="M3.41155 5.77902V14.4492H0.0859375V5.77902H3.41155ZM2.60129 10.8735C2.60129 10.7877 2.53265 10.719 2.44684 10.719H1.05065C0.964841 10.719 0.896196 10.7889 0.896196 10.8735C0.896196 10.9593 0.964841 11.0279 1.05065 11.0279H2.44562C2.53265 11.0292 2.60129 10.9593 2.60129 10.8735Z" fill="url(#paint11_linear_168_5599)"/>
<defs>
<linearGradient id="paint0_linear_168_5599" x1="18.4986" y1="9.75957" x2="13.1084" y2="9.75957" gradientUnits="userSpaceOnUse">
<stop stop-color="#7A6EEE"/>
<stop offset="1" stop-color="#A728DA"/>
</linearGradient>
<linearGradient id="paint1_linear_168_5599" x1="15.1072" y1="4.28661" x2="12.4757" y2="5.34431" gradientUnits="userSpaceOnUse">
<stop stop-color="#7A6EEE"/>
<stop offset="1" stop-color="#A728DA"/>
</linearGradient>
<linearGradient id="paint2_linear_168_5599" x1="14.3306" y1="2.35539" x2="11.6991" y2="3.4131" gradientUnits="userSpaceOnUse">
<stop stop-color="#7A6EEE"/>
<stop offset="1" stop-color="#A728DA"/>
</linearGradient>
<linearGradient id="paint3_linear_168_5599" x1="10.4644" y1="1.43901" x2="7.62869" y2="1.43901" gradientUnits="userSpaceOnUse">
<stop stop-color="#7A6EEE"/>
<stop offset="1" stop-color="#A728DA"/>
</linearGradient>
<linearGradient id="paint4_linear_168_5599" x1="10.4644" y1="3.48057" x2="7.62869" y2="3.48057" gradientUnits="userSpaceOnUse">
<stop stop-color="#7A6EEE"/>
<stop offset="1" stop-color="#A728DA"/>
</linearGradient>
<linearGradient id="paint5_linear_168_5599" x1="9.50702" y1="7.55393" x2="8.5496" y2="7.55393" gradientUnits="userSpaceOnUse">
<stop stop-color="#7A6EEE"/>
<stop offset="1" stop-color="#A728DA"/>
</linearGradient>
<linearGradient id="paint6_linear_168_5599" x1="10.4644" y1="9.45917" x2="7.62869" y2="9.45917" gradientUnits="userSpaceOnUse">
<stop stop-color="#7A6EEE"/>
<stop offset="1" stop-color="#A728DA"/>
</linearGradient>
<linearGradient id="paint7_linear_168_5599" x1="5.85645" y1="6.63881" x2="4.93039" y2="6.63881" gradientUnits="userSpaceOnUse">
<stop stop-color="#7A6EEE"/>
<stop offset="1" stop-color="#A728DA"/>
</linearGradient>
<linearGradient id="paint8_linear_168_5599" x1="6.82863" y1="8.84377" x2="3.99295" y2="8.84377" gradientUnits="userSpaceOnUse">
<stop stop-color="#7A6EEE"/>
<stop offset="1" stop-color="#A728DA"/>
</linearGradient>
<linearGradient id="paint9_linear_168_5599" x1="3.19288" y1="2.70833" x2="0.357209" y2="2.70833" gradientUnits="userSpaceOnUse">
<stop stop-color="#7A6EEE"/>
<stop offset="1" stop-color="#A728DA"/>
</linearGradient>
<linearGradient id="paint10_linear_168_5599" x1="3.19288" y1="4.78977" x2="0.357209" y2="4.78977" gradientUnits="userSpaceOnUse">
<stop stop-color="#7A6EEE"/>
<stop offset="1" stop-color="#A728DA"/>
</linearGradient>
<linearGradient id="paint11_linear_168_5599" x1="3.19288" y1="10.1138" x2="0.357209" y2="10.1138" gradientUnits="userSpaceOnUse">
<stop stop-color="#7A6EEE"/>
<stop offset="1" stop-color="#A728DA"/>
</linearGradient>
</defs>
</svg>

<svg width="19" height="15" viewBox="0 0 19 15" fill="none" xmlns="http://www.w3.org/2000/svg"><path d="M15.678 5.117l3.236 8.044-3.085 1.242-3.236-8.044 3.085-1.242zm.906 5.294a.154.154 0 10-.115-.287l-.978.394a.154.154 0 10.115.287l.978-.394z" fill="url(#paint0_linear_168_5599)"/><path d="M11.97 4.815l3.087-1.24.506 1.26-3.086 1.24-.506-1.26z" fill="url(#paint1_linear_168_5599)"/><path d="M11.04 2.5l3.086-1.24.815 2.027-3.086 1.24-.815-2.026z" fill="url(#paint2_linear_168_5599)"/><path d="M10.683 2.41v.081H7.357V.387h3.326V2.41z" fill="url(#paint3_linear_168_5599)"/><path d="M10.683 2.802V4.16H7.357V2.802h3.326z" fill="url(#paint4_linear_168_5599)"/><path d="M9.02 6.993a.562.562 0 11-.002 1.124.562.562 0 01.001-1.124z" fill="url(#paint5_linear_168_5599)"/><path d="M10.683 4.47v9.98H7.357V4.47h3.326zm-.81 6.02a.154.154 0 00-.155-.155H8.322a.154.154 0 00-.154.155c0 .086.068.154.154.154h1.395a.155.155 0 00.156-.154zm0 1.59a.154.154 0 00-.155-.154H8.322a.155.155 0 000 .31h1.395a.155.155 0 00.156-.155zm.017-4.527a.87.87 0 10-1.741 0 .87.87 0 001.74 0z" fill="url(#paint6_linear_168_5599)"/><path d="M4.842 4.944h1.086v3.39H4.842v-3.39z" fill="url(#paint7_linear_168_5599)"/><path d="M7.047 4.314v10.134H3.722V3.24h3.325v1.074zm-.81 4.174v-3.7a.154.154 0 00-.154-.154H4.686a.154.154 0 00-.154.155v3.699c0 .086.069.154.154.154h1.395a.154.154 0 00.156-.154zm0 2.263a.154.154 0 00-.154-.155H4.686a.154.154 0 00-.154.155c0 .086.069.154.154.154h1.395c.087 0 .156-.07.156-.154zm0 1.59a.154.154 0 00-.154-.155H4.686a.155.155 0 000 .31h1.395a.153.153 0 00.156-.155z" fill="url(#paint8_linear_168_5599)"/><path d="M3.412 3.086v.715H.086V1.616h3.326v1.47z" fill="url(#paint9_linear_168_5599)"/><path d="M.086 4.11h3.326v1.36H.086V4.11z" fill="url(#paint10_linear_168_5599)"/><path d="M3.412 5.779v8.67H.086V5.78h3.326zm-.81 5.095a.154.154 0 00-.155-.155H1.05a.155.155 0 000 .309h1.395a.153.153 0 00.155-.155z" fill="url(#paint11_linear_168_5599)"/><defs><linearGradient id="paint0_linear_168_5599" x1="18.499" y1="9.76" x2="13.108" y2="9.76" gradientUnits="userSpaceOnUse"><stop stop-color="#7A6EEE"/><stop offset="1" stop-color="#A728DA"/></linearGradient><linearGradient id="paint1_linear_168_5599" x1="15.107" y1="4.287" x2="12.476" y2="5.344" gradientUnits="userSpaceOnUse"><stop stop-color="#7A6EEE"/><stop offset="1" stop-color="#A728DA"/></linearGradient><linearGradient id="paint2_linear_168_5599" x1="14.331" y1="2.355" x2="11.699" y2="3.413" gradientUnits="userSpaceOnUse"><stop stop-color="#7A6EEE"/><stop offset="1" stop-color="#A728DA"/></linearGradient><linearGradient id="paint3_linear_168_5599" x1="10.464" y1="1.439" x2="7.629" y2="1.439" gradientUnits="userSpaceOnUse"><stop stop-color="#7A6EEE"/><stop offset="1" stop-color="#A728DA"/></linearGradient><linearGradient id="paint4_linear_168_5599" x1="10.464" y1="3.481" x2="7.629" y2="3.481" gradientUnits="userSpaceOnUse"><stop stop-color="#7A6EEE"/><stop offset="1" stop-color="#A728DA"/></linearGradient><linearGradient id="paint5_linear_168_5599" x1="9.507" y1="7.554" x2="8.55" y2="7.554" gradientUnits="userSpaceOnUse"><stop stop-color="#7A6EEE"/><stop offset="1" stop-color="#A728DA"/></linearGradient><linearGradient id="paint6_linear_168_5599" x1="10.464" y1="9.459" x2="7.629" y2="9.459" gradientUnits="userSpaceOnUse"><stop stop-color="#7A6EEE"/><stop offset="1" stop-color="#A728DA"/></linearGradient><linearGradient id="paint7_linear_168_5599" x1="5.856" y1="6.639" x2="4.93" y2="6.639" gradientUnits="userSpaceOnUse"><stop stop-color="#7A6EEE"/><stop offset="1" stop-color="#A728DA"/></linearGradient><linearGradient id="paint8_linear_168_5599" x1="6.829" y1="8.844" x2="3.993" y2="8.844" gradientUnits="userSpaceOnUse"><stop stop-color="#7A6EEE"/><stop offset="1" stop-color="#A728DA"/></linearGradient><linearGradient id="paint9_linear_168_5599" x1="3.193" y1="2.708" x2=".357" y2="2.708" gradientUnits="userSpaceOnUse"><stop stop-color="#7A6EEE"/><stop offset="1" stop-color="#A728DA"/></linearGradient><linearGradient id="paint10_linear_168_5599" x1="3.193" y1="4.79" x2=".357" y2="4.79" gradientUnits="userSpaceOnUse"><stop stop-color="#7A6EEE"/><stop offset="1" stop-color="#A728DA"/></linearGradient><linearGradient id="paint11_linear_168_5599" x1="3.193" y1="10.114" x2=".357" y2="10.114" gradientUnits="userSpaceOnUse"><stop stop-color="#7A6EEE"/><stop offset="1" stop-color="#A728DA"/></linearGradient></defs></svg>
